X: 7958
T: Condon's Frolics
R: jig
M: 6/8
K: Adorian
|:"Am"eAB c2d|edc BAG|eAB c2d|ded eag|
"F"eAB c2"D"|gdc BAF|"G"GB/c/d gdB|"Am"~A3 A2G:|
|:"Am"eaa egg|dec BAG|"C"cGE dGE|eed efg|
"D"e2a efg|dec BAD|"G"GB/c/d gdB|"Am"GAA AB/A/G:|

